packages/ffe-icons/icons/open/400/sm/currency_franc.svg

<svg xmlns="http://www.w3.org/2000/svg" height="20" viewBox="0 -960 960 960" width="20"><path d="M288-180v-84h-35.79q-15.21 0-25.71-10.29t-10.5-25.5q0-15.21 10.35-25.84 10.35-10.63 25.65-10.63h36V-780q0-15.3 10.35-25.65Q308.7-816 324-816h336q15.3 0 25.65 10.29Q696-795.42 696-780.21t-10.35 25.71Q675.3-744 660-744H360v216h276q15.3 0 25.65 10.29Q672-507.42 672-492.21t-10.35 25.71Q651.3-456 636-456H360v120h132q15.3 0 25.65 10.29Q528-315.42 528-300.21t-10.35 25.71Q507.3-264 492-264H360v84q0 15.3-10.29 25.65Q339.42-144 324.21-144t-25.71-10.35Q288-164.7 288-180Z"/></svg>

<svg xmlns="http://www.w3.org/2000/svg" height="20" viewBox="0 -960 960 960" width="20"><path d="M288-180v-84h-35.789Q237-264 226.5-274.289q-10.5-10.29-10.5-25.5 0-15.211 10.35-25.842 10.35-10.631 25.65-10.631h36V-780q0-15.3 10.35-25.65Q308.7-816 324-816h336q15.3 0 25.65 10.289 10.35 10.29 10.35 25.5Q696-765 685.65-754.5 675.3-744 660-744H360v216h276q15.3 0 25.65 10.289 10.35 10.29 10.35 25.5Q672-477 661.65-466.5 651.3-456 636-456H360v120h132q15.3 0 25.65 10.289 10.35 10.29 10.35 25.5Q528-285 517.65-274.5 507.3-264 492-264H360v84q0 15.3-10.289 25.65-10.29 10.35-25.5 10.35Q309-144 298.5-154.35 288-164.7 288-180Z"/></svg>
